svgs/sharp-light/desktop.svg

<svg xmlns="http://www.w3.org/2000/svg" viewBox="0 0 576 512"><!--! Font Awesome Pro 6.6.0 by @fontawesome - https://fontawesome.com License - https://fontawesome.com/license (Commercial License) Copyright 2024 Fonticons, Inc. --><path d="M544 32L32 32l0 224 512 0 0-224zm32 224l0 32 0 96 0 32-32 0-181.1 0 10.7 64 58.4 0 16 0 0 32-16 0-72 0-144 0-72 0-16 0 0-32 16 0 58.4 0 10.7-64L32 416 0 416l0-32 0-96 0-32L0 32 0 0 32 0 544 0l32 0 0 32 0 224zM32 288l0 96 199.7 0c.2 0 .4 0 .6 0l111.5 0c.2 0 .4 0 .6 0L544 384l0-96L32 288zM234.9 480l106.2 0-10.7-64-84.9 0-10.7 64z"/></svg>

<svg xmlns="http://www.w3.org/2000/svg" viewBox="0 0 576 512"><!--! Font Awesome Pro 6.4.2 by @fontawesome - https://fontawesome.com License - https://fontawesome.com/license (Commercial License) Copyright 2023 Fonticons, Inc. --><path d="M544 32H32V256H544V32zm32 224v32 96 32H544 362.9l10.7 64H432h16v32H432 360 216 144 128V480h16 58.4l10.7-64H32 0V384 288 256 32 0H32 544h32V32 256zM32 288v96H231.7c.2 0 .4 0 .6 0H343.7c.2 0 .4 0 .6 0H544V288H32zM234.9 480H341.1l-10.7-64H245.6l-10.7 64z"/></svg>
